X:1
T:Tyrell's Pass
M:6/8
L:1/8
R:jig
K:GMaj
|:B3 edB | edB AGE | B2e edB | edB A3 |
B2e edB | edB AGE | ABG AGE | DGF G3 :|
|:B2g ged | ged BAG | GBd g2e | edB A3 |
B3 ged | ged BAG | ABG AGE | DGF G3 :|
